packages/core/src/svgs/tokens/branded/ATRI.svg

<svg width="24" height="24" viewBox="0 0 24 24" fill="none" xmlns="http://www.w3.org/2000/svg">
<path d="M8.66667 4.5H10.3333V7.83333C10.3333 12.2777 9.28333 18.2834 2 19.5001V17.2778C3.66667 17 8.65 15.0556 8.65 7.83333L8.66667 4.5ZM10.8889 4.5H13.1112V19.5001H10.8889V4.5ZM15.3333 4.5H13.6666V7.83333C13.6666 12.2777 14.7166 18.2834 22 19.5001V17.2778C20.3334 17 15.35 15.0556 15.35 7.83333L15.3333 4.5Z" fill="#E01920"/>
</svg>

<svg xmlns="http://www.w3.org/2000/svg" width="24" height="24" fill="none" viewBox="0 0 24 24">
    <path fill="#E01920" d="M8.667 4.5h1.666v3.333c0 4.445-1.05 10.45-8.333 11.667v-2.222C3.667 17 8.65 15.056 8.65 7.833zm2.222 0h2.222v15H10.89zm4.444 0h-1.666v3.333c0 4.445 1.05 10.45 8.333 11.667v-2.222c-1.667-.278-6.65-2.222-6.65-9.445z"/>
</svg>
